docroot/modules/custom/liberty_claims/vuejs/src/assets/icon-terceros.svg

<?xml version="1.0" encoding="UTF-8"?>
<svg width="50px" height="44px" viewBox="0 0 50 44" version="1.1" xmlns="http://www.w3.org/2000/svg" xmlns:xlink="http://www.w3.org/1999/xlink">
    <!-- Generator: Sketch 61.2 (89653) - https://sketch.com -->
    <title>Group 2</title>
    <desc>Created with Sketch.</desc>
    <g id="DSK-Siniestros" stroke="none" stroke-width="1" fill="none" fill-rule="evenodd">
        <g id="1.Claims-Home" transform="translate(-796.000000, -849.000000)" fill="#171343" fill-rule="nonzero">
            <g id="Group-2" transform="translate(796.000000, 849.000000)">
                <g id="elements-icon-liberty-person-1_0-copy">
                    <path d="M14.5,9 C13.125,9 12,9.9 12,11 L17,11 C17,9.9 15.875,9 14.5,9 Z" id="Path"></path>
                    <path d="M18.028169,26 C8.05633803,26 0,34.1 0,44 L2.25352113,44 C2.25352113,37.41875 6.36619718,31.7375 12.1126761,29.43125 L15.6056338,32.91875 C16.2253521,33.5375 17.1267606,33.93125 17.971831,33.93125 C18.8732394,33.93125 19.7183099,33.59375 20.3380282,32.91875 L23.8309859,29.43125 C29.6901408,31.7375 33.7464789,37.41875 33.7464789,44 L36,44 C36,34.1 27.943662,26 18.028169,26 Z M18.8169014,31.2875 C18.3661972,31.7375 17.6901408,31.7375 17.2394366,31.2875 L14.5915493,28.64375 C15.7183099,28.3625 16.9014085,28.25 18.028169,28.25 C19.2112676,28.25 20.3943662,28.3625 21.4647887,28.64375 L18.8169014,31.2875 Z" id="Shape"></path>
                    <path d="M21.5,9 C20.125,9 19,9.9 19,11 L24,11 C24,9.9 22.875,9 21.5,9 Z" id="Path"></path>
                    <path d="M17.5002373,22 C23.8251068,22 29,17.05 29,11 C29,4.95 23.8251068,0 17.5002373,0 C11.1753678,0 6.00047456,4.95 6.00047456,11 C5.94297575,17.05 11.117869,22 17.5002373,22 Z M17.5002373,2.2 C22.5601329,2.2 26.7000475,6.16 26.7000475,11 C26.7000475,15.84 22.5601329,19.8 17.5002373,19.8 C12.4403417,19.8 8.3004271,15.84 8.3004271,11 C8.24292829,6.16 12.3828429,2.2 17.5002373,2.2 Z" id="Shape"></path>
                </g>
                <g id="noun_people_2492621" transform="translate(32.000000, 15.000000)">
                    <g id="Group">
                        <path d="M6.44107014,0.0170105646 C3.06094704,0.0170105646 0.292493743,2.87367983 0.292493743,6.36701048 C0.292493743,8.2852023 1.13059957,10.0080092 2.44274985,11.1757373 C1.69716303,11.4708714 0.98412321,11.8470875 0.317585591,12.2987134 L1.54162786,14.2289691 C2.97513752,13.2576667 4.67256738,12.7210473 6.44107014,12.7203926 C10.9931577,12.7203926 14.5785104,16.2604651 15.1490084,20.7999559 L9.78809547,20.7999559 L9.78809547,23.1090468 L16.4930549,23.1090468 C17.110003,23.1090468 17.6101845,22.5921128 17.6101845,21.9545013 C17.6101845,17.0445094 14.6197727,12.8496336 10.4273902,11.1847572 C11.7440917,10.0169171 12.5841921,8.28999886 12.5841921,6.36701048 C12.5841921,2.87367983 9.82119323,0.0170105646 6.44107014,0.0170105646 Z M6.44107014,2.32722886 C8.61370962,2.32722886 10.3499329,4.12159221 10.3499329,6.36701048 C10.3499329,8.61240682 8.61370962,10.4101744 6.44107014,10.4101744 C4.26843066,10.4101744 2.52784385,8.61240682 2.52784385,6.36701048 C2.52784385,4.12159221 4.26843066,2.32722886 6.44107014,2.32722886 Z" id="Shape"></path>
                        <polygon id="Path" points="5.32313289 20.7997091 5.32313289 23.1093818 7.55794244 23.1093818 7.55794244 20.7997091"></polygon>
                    </g>
                </g>
            </g>
        </g>
    </g>
</svg>

<svg xmlns="http://www.w3.org/2000/svg" width="90" height="90" viewBox="0 0 90 90">
  <g id="Grupo_28750" data-name="Grupo 28750" transform="translate(20116 10648)">
    <circle id="Elipse_409" data-name="Elipse 409" cx="45" cy="45" r="45" transform="translate(-20116 -10648)" fill="#fff"/>
    <g id="DSK-Siniestros" transform="translate(-20095.805 -10625)">
      <g id="_1.Claims-Home" data-name="1.Claims-Home" transform="translate(-796 -849)">
        <g id="Group-2" transform="translate(796 849)">
          <g id="elements-icon-liberty-person-1_0-copy">
            <path id="Path" d="M14.5,9A2.3,2.3,0,0,0,12,11h5A2.3,2.3,0,0,0,14.5,9Z" fill="#006729"/>
            <path id="Shape" d="M18.028,26A18.031,18.031,0,0,0,0,44H2.254a15.756,15.756,0,0,1,9.859-14.569l3.493,3.488a3.482,3.482,0,0,0,2.366,1.013,3.156,3.156,0,0,0,2.366-1.013l3.493-3.488A15.639,15.639,0,0,1,33.746,44H36A18.019,18.019,0,0,0,18.028,26Zm.789,5.288a1.09,1.09,0,0,1-1.577,0l-2.648-2.644a14.329,14.329,0,0,1,3.437-.394,13.7,13.7,0,0,1,3.437.394Z" fill="#006729"/>
            <path id="Path-2" data-name="Path" d="M21.5,9A2.3,2.3,0,0,0,19,11h5A2.3,2.3,0,0,0,21.5,9Z" fill="#006729"/>
            <path id="Shape-2" data-name="Shape" d="M17.5,22A11.291,11.291,0,0,0,29,11,11.291,11.291,0,0,0,17.5,0,11.291,11.291,0,0,0,6,11C5.943,17.05,11.118,22,17.5,22Zm0-19.8A9.033,9.033,0,0,1,26.7,11a9.033,9.033,0,0,1-9.2,8.8A9.033,9.033,0,0,1,8.3,11,8.96,8.96,0,0,1,17.5,2.2Z" fill="#006729"/>
          </g>
          <g id="noun_people_2492621" transform="translate(32 15)">
            <g id="Group">
              <path id="Shape-3" data-name="Shape" d="M6.441.017A6.271,6.271,0,0,0,.292,6.367a6.428,6.428,0,0,0,2.15,4.809A11.024,11.024,0,0,0,.318,12.3l1.224,1.93a8.728,8.728,0,0,1,4.9-1.509,8.924,8.924,0,0,1,8.708,8.08H9.788v2.309h6.7a1.136,1.136,0,0,0,1.117-1.154,11.55,11.55,0,0,0-7.183-10.77,6.43,6.43,0,0,0,2.157-4.818A6.266,6.266,0,0,0,6.441.017Zm0,2.31a3.958,3.958,0,0,1,3.909,4.04A3.961,3.961,0,0,1,6.441,10.41,3.965,3.965,0,0,1,2.528,6.367,3.962,3.962,0,0,1,6.441,2.327Z" fill="#006729"/>
              <path id="Path-3" data-name="Path" d="M5.323,20.8v2.31H7.558V20.8Z" fill="#006729"/>
            </g>
          </g>
        </g>
      </g>
    </g>
  </g>
</svg>
